svg/emoji_u1f3ec.svg

<svg enable-background="new 0 0 128 128" viewBox="0 0 128 128" xmlns="http://www.w3.org/2000/svg" xmlns:xlink="http://www.w3.org/1999/xlink"><linearGradient id="d" x1="100.62" x2="100.62" y1="13.333" y2="122.67" gradientUnits="userSpaceOnUse"><stop stop-color="#BCAAA4" offset=".1767"/><stop stop-color="#B9A69F" offset=".3665"/><stop stop-color="#AE9991" offset=".5861"/><stop stop-color="#9E837A" offset=".8195"/><stop stop-color="#8D6E63" offset="1"/></linearGradient><path d="M123.75,124H77.5V15c0-1.66,1.34-3,3-3h40.25c1.66,0,3,1.34,3,3V124z" fill="url(#d)"/><path d="m97.58 99.08h-6.25c-1.1 0-2-0.9-2-2v-6c0-1.1 0.9-2 2-2h6.25c1.1 0 2 0.9 2 2v6c0 1.11-0.89 2-2 2z" fill="#6D4C41"/><path d="m97.58 82.42h-6.25c-1.1 0-2-0.9-2-2v-6c0-1.1 0.9-2 2-2h6.25c1.1 0 2 0.9 2 2v6c0 1.1-0.89 2-2 2z" fill="#6D4C41"/><path d="m97.58 65.75h-6.25c-1.1 0-2-0.9-2-2v-6c0-1.1 0.9-2 2-2h6.25c1.1 0 2 0.9 2 2v6c0 1.1-0.89 2-2 2z" fill="#6D4C41"/><path d="m97.58 48h-6.25c-1.1 0-2-0.9-2-2v-6c0-1.1 0.9-2 2-2h6.25c1.1 0 2 0.9 2 2v6c0 1.1-0.89 2-2 2z" fill="#6D4C41"/><path d="m118.58 99.08h-9.75c-1.1 0-2-0.9-2-2v-6c0-1.1 0.9-2 2-2h9.75c1.1 0 2 0.9 2 2v6c0 1.11-0.89 2-2 2z" fill="#6D4C41"/><path d="m118.58 82.42h-9.75c-1.1 0-2-0.9-2-2v-6c0-1.1 0.9-2 2-2h9.75c1.1 0 2 0.9 2 2v6c0 1.1-0.89 2-2 2z" fill="#6D4C41"/><path d="m118.58 65.75h-9.75c-1.1 0-2-0.9-2-2v-6c0-1.1 0.9-2 2-2h9.75c1.1 0 2 0.9 2 2v6c0 1.1-0.89 2-2 2z" fill="#6D4C41"/><path d="m118.58 48h-9.75c-1.1 0-2-0.9-2-2v-6c0-1.1 0.9-2 2-2h9.75c1.1 0 2 0.9 2 2v6c0 1.1-0.89 2-2 2z" fill="#6D4C41"/><rect x="90.25" y="29.62" width="8" height="5" fill="#C62828"/><rect x="90.25" y="92" width="8" height="5" fill="#C62828"/><linearGradient id="c" x1="48" x2="48" y1="3.75" y2="124.81" gradientUnits="userSpaceOnUse"><stop stop-color="#D7CCC8" offset=".1767"/><stop stop-color="#D3C8C3" offset=".3545"/><stop stop-color="#C9BAB5" offset=".5602"/><stop stop-color="#B8A59E" offset=".7797"/><stop stop-color="#A1887F" offset="1"/></linearGradient><path d="M92,124H4V8c0-2.21,1.79-4,4-4h80c2.21,0,4,1.79,4,4V124z" fill="url(#c)"/><g opacity=".2"><path d="m88 7c0.55 0 1 0.45 1 1v4c0 1.66 1.34 3 3 3h28.75v106h-113.75v-113c0-0.55 0.45-1 1-1h80m0-3h-80c-2.21 0-4 1.79-4 4v116h119.75v-109c0-1.66-1.34-3-3-3h-28.75v-4c0-2.21-1.79-4-4-4z" fill="#424242"/></g><path d="m25.05 97.08h-11.22c-1.1 0-2-0.9-2-2v-5.78c0-1.1 0.9-2 2-2h11.22c1.1 0 2 0.9 2 2v5.78c0 1.11-0.89 2-2 2z" fill="#6D4C41"/><path d="m25.05 80.79h-11.22c-1.1 0-2-0.9-2-2v-5.78c0-1.1 0.9-2 2-2h11.22c1.1 0 2 0.9 2 2v5.78c0 1.1-0.89 2-2 2z" fill="#6D4C41"/><path d="m25.05 64.49h-11.22c-1.1 0-2-0.9-2-2v-5.78c0-1.1 0.9-2 2-2h11.22c1.1 0 2 0.9 2 2v5.78c0 1.11-0.89 2-2 2z" fill="#6D4C41"/><path d="m25.05 48.19h-11.22c-1.1 0-2-0.9-2-2v-5.78c0-1.1 0.9-2 2-2h11.22c1.1 0 2 0.9 2 2v5.78c0 1.11-0.89 2-2 2z" fill="#6D4C41"/><path d="m53.28 97.08h-11.22c-1.1 0-2-0.9-2-2v-5.78c0-1.1 0.9-2 2-2h11.22c1.1 0 2 0.9 2 2v5.78c0 1.11-0.9 2-2 2z" fill="#6D4C41"/><path d="m53.28 80.79h-11.22c-1.1 0-2-0.9-2-2v-5.78c0-1.1 0.9-2 2-2h11.22c1.1 0 2 0.9 2 2v5.78c0 1.1-0.9 2-2 2z" fill="#6D4C41"/><path d="m53.28 64.49h-11.22c-1.1 0-2-0.9-2-2v-5.78c0-1.1 0.9-2 2-2h11.22c1.1 0 2 0.9 2 2v5.78c0 1.11-0.9 2-2 2z" fill="#6D4C41"/><path d="m53.28 48.19h-11.22c-1.1 0-2-0.9-2-2v-5.78c0-1.1 0.9-2 2-2h11.22c1.1 0 2 0.9 2 2v5.78c0 1.11-0.9 2-2 2z" fill="#6D4C41"/><path d="m81.5 97.08h-11.22c-1.1 0-2-0.9-2-2v-5.78c0-1.1 0.9-2 2-2h11.22c1.1 0 2 0.9 2 2v5.78c0 1.11-0.9 2-2 2z" fill="#6D4C41"/><path d="m81.5 80.79h-11.22c-1.1 0-2-0.9-2-2v-5.78c0-1.1 0.9-2 2-2h11.22c1.1 0 2 0.9 2 2v5.78c0 1.1-0.9 2-2 2z" fill="#6D4C41"/><path d="m81.5 64.49h-11.22c-1.1 0-2-0.9-2-2v-5.78c0-1.1 0.9-2 2-2h11.22c1.1 0 2 0.9 2 2v5.78c0 1.11-0.9 2-2 2z" fill="#6D4C41"/><path d="m81.5 48.19h-11.22c-1.1 0-2-0.9-2-2v-5.78c0-1.1 0.9-2 2-2h11.22c1.1 0 2 0.9 2 2v5.78c0 1.11-0.9 2-2 2z" fill="#6D4C41"/><path d="m25.05 31.86h-11.22c-1.1 0-2-0.9-2-2v-5.78c0-1.1 0.9-2 2-2h11.22c1.1 0 2 0.9 2 2v5.78c0 1.11-0.89 2-2 2z" fill="#6D4C41"/><path d="m53.28 31.86h-11.22c-1.1 0-2-0.9-2-2v-5.78c0-1.1 0.9-2 2-2h11.22c1.1 0 2 0.9 2 2v5.78c0 1.11-0.9 2-2 2z" fill="#6D4C41"/><path d="m81.5 31.86h-11.22c-1.1 0-2-0.9-2-2v-5.78c0-1.1 0.9-2 2-2h11.22c1.1 0 2 0.9 2 2v5.78c0 1.11-0.9 2-2 2z" fill="#6D4C41"/><rect x="11" y="110" width="22.42" height="14" fill="#6D4C41"/><g fill="#424242" opacity=".2"><rect x="11" y="110" width="2.8" height="14"/><rect x="30.62" y="110" width="2.8" height="14"/></g><rect x="36.79" y="110" width="22.42" height="14" fill="#6D4C41"/><g fill="#424242" opacity=".2"><rect x="36.79" y="110" width="2.8" height="14"/><rect x="56.41" y="110" width="2.8" height="14"/></g><rect x="62.58" y="110" width="22.42" height="14" fill="#6D4C41"/><g fill="#424242" opacity=".2"><rect x="62.58" y="110" width="2.8" height="14"/><rect x="82.2" y="110" width="2.8" height="14"/></g><path d="m87.75 112.08h-79.08c-1.1 0-2-0.9-2-2v-0.3h83.08v0.3c0 1.11-0.9 2-2 2z" fill="#4DB6AC"/><path d="m89.75 110.36h-83.08v-2.44c0-0.55 0.45-1 1-1h81.08c0.55 0 1 0.45 1 1v2.44z" fill="#00796B"/><path d="M100,104.71c-1.63,0-2.96-1.33-2.96-2.96V25c0-1.63,1.33-2.96,2.96-2.96h11.57 c1.63,0,2.96,1.33,2.96,2.96v76.75c0,1.63-1.33,2.96-2.96,2.96H100z" fill="#EF5350"/><path d="m111.57 23.07c1.06 0 1.93 0.87 1.93 1.93v76.75c0 1.06-0.87 1.93-1.93 1.93h-11.57c-1.06 0-1.93-0.87-1.93-1.93v-76.75c0-1.06 0.87-1.93 1.93-1.93h11.57m0-2.07h-11.57c-2.21 0-4 1.79-4 4v76.75c0 2.21 1.79 4 4 4h11.57c2.21 0 4-1.79 4-4v-76.75c0-2.21-1.79-4-4-4z" fill="#C62828"/><defs><path id="b" d="M92,124H4V8c0-2.21,1.79-4,4-4h80c2.21,0,4,1.79,4,4V124z"/></defs><clipPath id="a"><use xlink:href="#b"/></clipPath><rect x="-2" y="4" width="107.83" height="7.83" clip-path="url(#a)" fill="#BF360C"/></svg>

<svg width="128" height="128" style="enable-background:new 0 0 128 128;" xmlns="http://www.w3.org/2000/svg" xmlns:xlink="http://www.w3.org/1999/xlink">
  <g id="_x31_">
    <g>
      <linearGradient id="SVGID_1_" gradientUnits="userSpaceOnUse" x1="100.625" x2="100.625" y1="13.3333" y2="122.6667">
        <stop offset="0.1767" style="stop-color:#BCAAA4"/>
        <stop offset="0.3665" style="stop-color:#B9A69F"/>
        <stop offset="0.5861" style="stop-color:#AE9991"/>
        <stop offset="0.8195" style="stop-color:#9E837A"/>
        <stop offset="1" style="stop-color:#8D6E63"/>
      </linearGradient>
      <path d="M123.75,124H77.5V15c0-1.66,1.34-3,3-3h40.25c1.66,0,3,1.34,3,3V124z" style="fill:url(#SVGID_1_);"/>
    </g>
    <path d="M97.58,99.08h-6.25c-1.1,0-2-0.9-2-2v-6c0-1.1,0.9-2,2-2h6.25c1.1,0,2,0.9,2,2v6 C99.58,98.19,98.69,99.08,97.58,99.08z" style="fill:#6D4C41;"/>
    <path d="M97.58,82.42h-6.25c-1.1,0-2-0.9-2-2v-6c0-1.1,0.9-2,2-2h6.25c1.1,0,2,0.9,2,2v6 C99.58,81.52,98.69,82.42,97.58,82.42z" style="fill:#6D4C41;"/>
    <path d="M97.58,65.75h-6.25c-1.1,0-2-0.9-2-2v-6c0-1.1,0.9-2,2-2h6.25c1.1,0,2,0.9,2,2v6 C99.58,64.85,98.69,65.75,97.58,65.75z" style="fill:#6D4C41;"/>
    <path d="M97.58,48h-6.25c-1.1,0-2-0.9-2-2v-6c0-1.1,0.9-2,2-2h6.25c1.1,0,2,0.9,2,2v6 C99.58,47.1,98.69,48,97.58,48z" style="fill:#6D4C41;"/>
    <path d="M118.58,99.08h-9.75c-1.1,0-2-0.9-2-2v-6c0-1.1,0.9-2,2-2h9.75c1.1,0,2,0.9,2,2v6 C120.58,98.19,119.69,99.08,118.58,99.08z" style="fill:#6D4C41;"/>
    <path d="M118.58,82.42h-9.75c-1.1,0-2-0.9-2-2v-6c0-1.1,0.9-2,2-2h9.75c1.1,0,2,0.9,2,2v6 C120.58,81.52,119.69,82.42,118.58,82.42z" style="fill:#6D4C41;"/>
    <path d="M118.58,65.75h-9.75c-1.1,0-2-0.9-2-2v-6c0-1.1,0.9-2,2-2h9.75c1.1,0,2,0.9,2,2v6 C120.58,64.85,119.69,65.75,118.58,65.75z" style="fill:#6D4C41;"/>
    <path d="M118.58,48h-9.75c-1.1,0-2-0.9-2-2v-6c0-1.1,0.9-2,2-2h9.75c1.1,0,2,0.9,2,2v6 C120.58,47.1,119.69,48,118.58,48z" style="fill:#6D4C41;"/>
    <rect height="5" style="fill:#C62828;" width="8" x="90.25" y="29.62"/>
    <rect height="5" style="fill:#C62828;" width="8" x="90.25" y="92"/>
    <g>
      <linearGradient id="SVGID_2_" gradientUnits="userSpaceOnUse" x1="48" x2="48" y1="3.75" y2="124.8081">
        <stop offset="0.1767" style="stop-color:#D7CCC8"/>
        <stop offset="0.3545" style="stop-color:#D3C8C3"/>
        <stop offset="0.5602" style="stop-color:#C9BAB5"/>
        <stop offset="0.7797" style="stop-color:#B8A59E"/>
        <stop offset="1" style="stop-color:#A1887F"/>
      </linearGradient>
      <path d="M92,124H4V8c0-2.21,1.79-4,4-4h80c2.21,0,4,1.79,4,4V124z" style="fill:url(#SVGID_2_);"/>
    </g>
    <g style="opacity:0.2;">
      <path d="M88,7c0.55,0,1,0.45,1,1v4c0,1.66,1.34,3,3,3h28.75v106H92H77.5H7V8c0-0.55,0.45-1,1-1H88 M88,4H8 C5.79,4,4,5.79,4,8v116h73.5H92h31.75V15c0-1.66-1.34-3-3-3H92V8C92,5.79,90.21,4,88,4L88,4z" style="fill:#424242;"/>
    </g>
    <path d="M25.05,97.08H13.83c-1.1,0-2-0.9-2-2v-5.78c0-1.1,0.9-2,2-2h11.22c1.1,0,2,0.9,2,2v5.78 C27.05,96.19,26.16,97.08,25.05,97.08z" style="fill:#6D4C41;"/>
    <path d="M25.05,80.79H13.83c-1.1,0-2-0.9-2-2v-5.78c0-1.1,0.9-2,2-2h11.22c1.1,0,2,0.9,2,2v5.78 C27.05,79.89,26.16,80.79,25.05,80.79z" style="fill:#6D4C41;"/>
    <path d="M25.05,64.49H13.83c-1.1,0-2-0.9-2-2v-5.78c0-1.1,0.9-2,2-2h11.22c1.1,0,2,0.9,2,2v5.78 C27.05,63.6,26.16,64.49,25.05,64.49z" style="fill:#6D4C41;"/>
    <path d="M25.05,48.19H13.83c-1.1,0-2-0.9-2-2v-5.78c0-1.1,0.9-2,2-2h11.22c1.1,0,2,0.9,2,2v5.78 C27.05,47.3,26.16,48.19,25.05,48.19z" style="fill:#6D4C41;"/>
    <path d="M53.28,97.08H42.06c-1.1,0-2-0.9-2-2v-5.78c0-1.1,0.9-2,2-2h11.22c1.1,0,2,0.9,2,2v5.78 C55.28,96.19,54.38,97.08,53.28,97.08z" style="fill:#6D4C41;"/>
    <path d="M53.28,80.79H42.06c-1.1,0-2-0.9-2-2v-5.78c0-1.1,0.9-2,2-2h11.22c1.1,0,2,0.9,2,2v5.78 C55.28,79.89,54.38,80.79,53.28,80.79z" style="fill:#6D4C41;"/>
    <path d="M53.28,64.49H42.06c-1.1,0-2-0.9-2-2v-5.78c0-1.1,0.9-2,2-2h11.22c1.1,0,2,0.9,2,2v5.78 C55.28,63.6,54.38,64.49,53.28,64.49z" style="fill:#6D4C41;"/>
    <path d="M53.28,48.19H42.06c-1.1,0-2-0.9-2-2v-5.78c0-1.1,0.9-2,2-2h11.22c1.1,0,2,0.9,2,2v5.78 C55.28,47.3,54.38,48.19,53.28,48.19z" style="fill:#6D4C41;"/>
    <path d="M81.5,97.08H70.28c-1.1,0-2-0.9-2-2v-5.78c0-1.1,0.9-2,2-2H81.5c1.1,0,2,0.9,2,2v5.78 C83.5,96.19,82.6,97.08,81.5,97.08z" style="fill:#6D4C41;"/>
    <path d="M81.5,80.79H70.28c-1.1,0-2-0.9-2-2v-5.78c0-1.1,0.9-2,2-2H81.5c1.1,0,2,0.9,2,2v5.78 C83.5,79.89,82.6,80.79,81.5,80.79z" style="fill:#6D4C41;"/>
    <path d="M81.5,64.49H70.28c-1.1,0-2-0.9-2-2v-5.78c0-1.1,0.9-2,2-2H81.5c1.1,0,2,0.9,2,2v5.78 C83.5,63.6,82.6,64.49,81.5,64.49z" style="fill:#6D4C41;"/>
    <path d="M81.5,48.19H70.28c-1.1,0-2-0.9-2-2v-5.78c0-1.1,0.9-2,2-2H81.5c1.1,0,2,0.9,2,2v5.78 C83.5,47.3,82.6,48.19,81.5,48.19z" style="fill:#6D4C41;"/>
    <path d="M25.05,31.86H13.83c-1.1,0-2-0.9-2-2v-5.78c0-1.1,0.9-2,2-2h11.22c1.1,0,2,0.9,2,2v5.78 C27.05,30.97,26.16,31.86,25.05,31.86z" style="fill:#6D4C41;"/>
    <path d="M53.28,31.86H42.06c-1.1,0-2-0.9-2-2v-5.78c0-1.1,0.9-2,2-2h11.22c1.1,0,2,0.9,2,2v5.78 C55.28,30.97,54.38,31.86,53.28,31.86z" style="fill:#6D4C41;"/>
    <path d="M81.5,31.86H70.28c-1.1,0-2-0.9-2-2v-5.78c0-1.1,0.9-2,2-2H81.5c1.1,0,2,0.9,2,2v5.78 C83.5,30.97,82.6,31.86,81.5,31.86z" style="fill:#6D4C41;"/>
    <g>
      <g>
        <rect height="14" style="fill:#6D4C41;" width="22.42" x="11" y="110"/>
        <g style="opacity:0.2;">
          <rect height="14" style="fill:#424242;" width="2.8" x="11" y="110"/>
          <rect height="14" style="fill:#424242;" width="2.8" x="30.62" y="110"/>
        </g>
      </g>
      <g>
        <rect height="14" style="fill:#6D4C41;" width="22.42" x="36.79" y="110"/>
        <g style="opacity:0.2;">
          <rect height="14" style="fill:#424242;" width="2.8" x="36.79" y="110"/>
          <rect height="14" style="fill:#424242;" width="2.8" x="56.41" y="110"/>
        </g>
      </g>
      <g>
        <rect height="14" style="fill:#6D4C41;" width="22.42" x="62.58" y="110"/>
        <g style="opacity:0.2;">
          <rect height="14" style="fill:#424242;" width="2.8" x="62.58" y="110"/>
          <rect height="14" style="fill:#424242;" width="2.8" x="82.2" y="110"/>
        </g>
      </g>
    </g>
    <g>
      <path d="M87.75,112.08H8.67c-1.1,0-2-0.9-2-2v-0.3h83.08v0.3C89.75,111.19,88.85,112.08,87.75,112.08z" style="fill:#4DB6AC;"/>
      <path d="M89.75,110.36H6.67v-2.44c0-0.55,0.45-1,1-1h81.08c0.55,0,1,0.45,1,1V110.36z" style="fill:#00796B;"/>
    </g>
    <g>
      <path d="M100,104.71c-1.63,0-2.96-1.33-2.96-2.96V25c0-1.63,1.33-2.96,2.96-2.96h11.57 c1.63,0,2.96,1.33,2.96,2.96v76.75c0,1.63-1.33,2.96-2.96,2.96H100z" style="fill:#EF5350;"/>
      <path d="M111.57,23.07c1.06,0,1.93,0.87,1.93,1.93v76.75c0,1.06-0.87,1.93-1.93,1.93H100 c-1.06,0-1.93-0.87-1.93-1.93V25c0-1.06,0.87-1.93,1.93-1.93H111.57 M111.57,21H100c-2.21,0-4,1.79-4,4v76.75c0,2.21,1.79,4,4,4 h11.57c2.21,0,4-1.79,4-4V25C115.57,22.79,113.78,21,111.57,21L111.57,21z" style="fill:#C62828;"/>
    </g>
    <g>
      <defs>
        <path id="SVGID_3_" d="M92,124H4V8c0-2.21,1.79-4,4-4h80c2.21,0,4,1.79,4,4V124z"/>
      </defs>
      <clipPath id="SVGID_4_">
        <use style="overflow:visible;" xlink:href="#SVGID_3_"/>
      </clipPath>
      <rect height="7.83" style="clip-path:url(#SVGID_4_);fill:#BF360C;" width="107.83" x="-2" y="4"/>
    </g>
  </g>
</svg>
